X:255
T:Sporting Pitchfork, The
T:Dairy Maid, The
R:jig
Z:id:hn-jig-255
M:6/8
K:G
~F3 ~E3|~F3 DEF|GFG AGA|cAG FGA|
~B3 BAG|~A3 ABc|dcA AGF|1 AGF GAG:|2 AGF GBc||
|:d2e fed|fge def|g2a bag|fd^c d2=c|
~B3 BAG|~A3 ABc|dcA AGF|1 AGF GBc:|2 AGF GAG||

